src/containers/site/SiteContactScreen/asset/telegram.svg

<svg width="32" height="32" viewBox="0 0 32 32" fill="none" xmlns="http://www.w3.org/2000/svg">
<path d="M31 16C31 24.2843 24.2843 31 16 31C7.71573 31 1 24.2843 1 16C1 7.71573 7.71573 1 16 1C24.2843 1 31 7.71573 31 16Z" stroke="url(#paint0_linear)" stroke-width="2"/>
<path d="M22.9544 11.0924L20.5399 21.2756C20.3577 21.9943 19.8827 22.1732 19.2076 21.8347L15.5287 19.4102L13.7536 20.9371C13.5572 21.1127 13.3928 21.2597 13.0143 21.2597L13.2785 17.9089L20.097 12.3988C20.3935 12.1625 20.0327 12.0315 19.6363 12.2679L11.2069 17.0145L7.57803 15.9988C6.78868 15.7783 6.77442 15.2928 7.74231 14.9542L21.9365 10.0639C22.5936 9.84351 23.1687 10.1948 22.9544 11.0924Z" fill="url(#paint1_linear)"/>
<defs>
<linearGradient id="paint0_linear" x1="-17.6391" y1="14.0495" x2="12.844" y2="45.2597" gradientUnits="userSpaceOnUse">
<stop stop-color="#FFCC5C"/>
<stop offset="1" stop-color="#FF9E65"/>
</linearGradient>
<linearGradient id="paint1_linear" x1="-1.81953" y1="15.2686" x2="9.08242" y2="30.1512" gradientUnits="userSpaceOnUse">
<stop stop-color="#FFCC5C"/>
<stop offset="1" stop-color="#FF9E65"/>
</linearGradient>
</defs>
</svg>

<svg width="32" height="32" fill="none" xmlns="http://www.w3.org/2000/svg"><path d="M31 16c0 8.284-6.716 15-15 15-8.284 0-15-6.716-15-15C1 7.716 7.716 1 16 1c8.284 0 15 6.716 15 15z" stroke="url(#paint0_linear)" stroke-width="2"/><path d="M22.954 11.092L20.54 21.276c-.182.718-.657.897-1.332.559l-3.68-2.425-1.774 1.527c-.197.176-.361.323-.74.323l.264-3.351 6.819-5.51c.296-.236-.064-.367-.46-.131l-8.43 4.747-3.629-1.016c-.79-.22-.804-.706.164-1.045l14.194-4.89c.658-.22 1.233.13 1.018 1.028z" fill="url(#paint1_linear)"/><defs><linearGradient id="paint0_linear" x1="-17.639" y1="14.05" x2="12.844" y2="45.26" gradientUnits="userSpaceOnUse"><stop stop-color="#FFCC5C"/><stop offset="1" stop-color="#FF9E65"/></linearGradient><linearGradient id="paint1_linear" x1="-1.82" y1="15.269" x2="9.082" y2="30.151" gradientUnits="userSpaceOnUse"><stop stop-color="#FFCC5C"/><stop offset="1" stop-color="#FF9E65"/></linearGradient></defs></svg>
